Origami/24x24/apps/appimagekit-gravit-designer.svg

<svg width="24" height="24" version="1.1" viewBox="0 0 24 24" xmlns="http://www.w3.org/2000/svg">
 <path d="m12 2c-0.506947 0.00259-1.012963 0.043722-1.513672 0.1230469-0.936654 0.8653117-7.6397255 7.5211091-8.3476561 8.2900391-0.00894 0.05624-0.017408 0.112559-0.02539 0.168945 0.2013365-0.164545 0.5061884-0.425524 0.8544922-0.7412105 0.1717075-0.155627 0.3834753-0.339514 0.4707031-0.40918 0.087227-0.069666 0.2484123-0.209018 0.3574219-0.30957 0.3027536-0.2792665 1.01873-0.913755 1.2285149-1.0888675 0.1029165-0.0859075 0.5028225-0.437621 0.888672-0.78125 0.3858495-0.3436285 0.8846345-0.783043 1.1083985-0.9765625 0.223764-0.193519 0.687835-0.6155725 1.03125-0.9375 0.6623705-0.6209261 2.7082765-2.4353439 2.9355465-2.6035155 0.07424-0.054938 0.143271-0.092089 0.153321-0.082031 0.02221 0.022227-0.106694 0.238486-0.561524 0.9404297-0.190849 0.294539-0.936 1.449612-1.65625 2.566406-0.720251 1.1167938-1.614106 2.5022958-1.986328 3.0791013-0.3722215 0.576806-1.1948545 1.852188-1.828125 2.833985s-1.4595743 2.261533-1.8359373 2.844726c-0.231131 0.35815-0.4052521 0.640875-0.5292969 0.850586 1.4361673 3.520157 4.7440562 5.921443 8.5359622 6.196289 0.285579 0.0033-0.160324-0.01925 0.285579 0.0033 1.249694-4.692798 2.291705-12.78811 5.042186-18.538096 0.115839-0.2421665-0.309459-0.2956093-0.254355-0.4173517-1.356255-0.6613762-2.844597-1.007254-4.353513-1.0117188z" style="fill:#c63166"/>
 <path d="M 2.01075,12.209 A 10,10 0 0 0 2,12.5 10,10 0 0 0 12,22.5 10,10 0 0 0 22,12.5 10,10 0 0 0 21.9895,12.291 10,10 0 0 1 12,22 10,10 0 0 1 2.011,12.209 Z" style="opacity:.2"/>
 <path d="m11.38086 2.0361328a10 10 0 0 0 -0.641602 0.053711 10 10 0 0 1 0.641602 -0.053711z" style="fill:#d8d342"/>
 <path d="m10.480469 2.6289063a10 10 0 0 0 -0.6552735 0.1357422c-1.751954 1.6946883-6.7131301 6.62288-7.5576174 7.5166015a10 10 0 0 0 -0.1259766 0.62793c0.7137618-0.774545 7.39293-7.4055279 8.3388675-8.2802737zm0.661133 0.5234375c-0.01005-0.010058-0.07908 0.027093-0.153321 0.082031-0.22727 0.1681715-2.273176 1.9825895-2.9355465 2.6035155-0.343415 0.3219275-0.807486 0.743981-1.03125 0.9375-0.223764 0.1935197-0.722549 0.6329342-1.1083985 0.9765627-0.3858495 0.343629-0.7857555 0.6953425-0.888672 0.78125-0.2097847 0.1751125-0.9257614 0.809601-1.2285155 1.0888675-0.1090097 0.100552-0.2701946 0.239904-0.3574219 0.30957-0.0872279 0.0696665-0.2989957 0.2535535-0.4707031 0.4091805-0.3483038 0.315685-0.6531558 0.576667-0.8544922 0.74121a10 10 0 0 0 -0.1035157 1.098633 10 10 0 0 0 0.7363282 3.583008c-5.4e-4 9e-4 -0.00142 3e-3 -0.00196 0.0039a10 10 0 0 0 0.016602 0.03516 10 10 0 0 0 9.75e-4 1e-3 10 10 0 0 0 0.1162109 0.248047c0.1117977-0.18398 0.2229643-0.367399 0.3955123-0.634771 0.3763631-0.583194 1.2026671-1.86293 1.8359375-2.844727 0.6332705-0.981796 1.4559035-2.257178 1.828125-2.833984 0.372222-0.5768055 1.266077-1.9623075 1.986328-3.0791015 0.72025-1.116794 1.4654015-2.271867 1.6562505-2.5664061 0.45483-0.7019437 0.583738-0.9182027 0.561523-0.9404297z" style="opacity:.2"/>
 <path d="m10.480469 2.1289063a10 10 0 0 0 -8.3388675 8.2802737c0.7137618-0.774545 7.392931-7.4055279 8.3388675-8.2802737z" style="fill:#b8da6c"/>
 <path d="m2.1416015 10.40918c-4.122e-4 4.47e-4 -0.00252 0.0035-0.00293 0.0039a10 10 0 0 0 -0.022461 0.146484 10 10 0 0 1 0.02539 -0.150391z" style="fill:#d8d342"/>
 <path d="m15.244141 2.5595703v0.00196a10 10 0 0 1 0.251953 0.083008 10 10 0 0 0 -0.251953 -0.084961z" style="fill:#d8d342"/>
 <path d="m15.496094 2.6445313a10 10 0 0 1 0.763671 0.3271484 10 10 0 0 0 -0.763671 -0.3271484z" style="fill:#d8d342"/>
 <path d="m16.259765 2.9716797a10 10 0 0 1 0.09277 0.041015l1e-3 -9.75e-4a10 10 0 0 0 -0.09375 -0.040039z" style="fill:#d8d342"/>
 <path d="m11.141602 2.6523438c-0.01005-0.010058-0.07908 0.027093-0.153321 0.082031-0.22727 0.1681715-2.273176 1.9825896-2.9355465 2.6035155-0.343415 0.3219275-0.807486 0.743981-1.03125 0.9375-0.223764 0.1935197-0.722549 0.6329342-1.1083985 0.9765627-0.3858495 0.343629-0.7857555 0.6953425-0.888672 0.78125-0.2097848 0.1751125-0.9257614 0.809601-1.2285155 1.0888675-0.1090097 0.100552-0.2701946 0.239904-0.3574219 0.30957-0.0872279 0.069666-0.2989957 0.253553-0.4707031 0.40918-0.3483038 0.3156855-0.6531558 0.5766665-0.8544922 0.7412105a10 10 0 0 0 -0.1132813 1.417969 10 10 0 0 0 1.2832031 4.889648v-0.02344a10 10 0 0 1 -0.0898437 -0.151364 10 10 0 0 1 -0.1904297 -0.395508 10 10 0 0 1 -0.2587891 -0.551758c0.1240449-0.209711 0.2981659-0.492436 0.5292969-0.850586 0.3763631-0.583193 1.2026671-1.862929 1.8359375-2.844726 0.6332705-0.981797 1.4559035-2.2571785 1.828125-2.833985 0.372222-0.5768055 1.266077-1.9623075 1.986328-3.0791015 0.72025-1.116794 1.465401-2.271867 1.65625-2.566406 0.45483-0.7019437 0.583739-0.9182027 0.561524-0.9404297z" style="fill:#b8da6c"/>
 <path d="m21.93457 13.040039-8.905273 8.905273a10 10 0 0 0 8.905273 -8.905273z" style="fill:#778b3c"/>
 <path d="m21.93457 13.040039-8.905273 8.905273a10 10 0 0 0 0.591797 -0.0918l8.234375-8.234374a10 10 0 0 0 0.0791 -0.579102z" style="opacity:.2"/>
 <path d="m16.352539 3.0126953c-0.05488 0.1212713-0.09442 0.212561-0.209961 0.4541016-2.750481 5.7499866-4.484333 11.9443-4.770507 17.039062-0.02619 0.466354-0.06144 1.039284-0.07813 1.272461l-0.01367 0.181641c0.239352 0.021991 0.479417 0.035346 0.719729 0.040039 0.343811-5e-4 0.687366-0.01878 1.029297-0.05469l8.905273-8.905271c0.039871-0.345307 0.061711-0.692458 0.06543-1.040039-0.006044-3.830082-2.199202-7.3202494-5.647461-8.9873047zm-3.323242 18.932617c4.692241-0.491338 8.402763-4.195347 8.902343-8.886718-0.49958 4.691371-4.210102 8.39538-8.902343 8.886718zm-1.749023 0.01465v0.0039z" style="fill:#eddf36"/>
 <path d="m12 2a10 10 0 0 0 -10 10 10 10 0 0 0 0.01075 0.209 10 10 0 0 1 9.989 -9.709 10 10 0 0 1 9.9895 9.791 10 10 0 0 0 0.0105 -0.291 10 10 0 0 0 -10 -10z" style="fill:#ffffff;opacity:.2"/>
</svg>

<svg xmlns="http://www.w3.org/2000/svg" width="24" height="24" version="1.1" viewBox="0 0 24 24">
 <path style="fill:#c63166" d="m 12,2 c -0.506947,0.00259 -1.012963,0.043722 -1.513672,0.1230469 -0.936654,0.8653117 -7.6397255,7.5211091 -8.3476561,8.2900391 -0.00894,0.05624 -0.017408,0.112559 -0.02539,0.168945 0.2013365,-0.164545 0.5061884,-0.425524 0.8544922,-0.7412105 0.1717075,-0.155627 0.3834753,-0.339514 0.4707031,-0.40918 0.087227,-0.069666 0.2484123,-0.209018 0.3574219,-0.30957 C 4.0986527,8.842804 4.8146291,8.2083155 5.024414,8.033203 5.1273305,7.9472955 5.5272365,7.595582 5.913086,7.251953 6.2989355,6.9083245 6.7977205,6.46891 7.0214845,6.2753905 7.2452485,6.0818715 7.7093195,5.659818 8.0527345,5.3378905 8.715105,4.7169644 10.761011,2.9025466 10.988281,2.734375 c 0.07424,-0.054938 0.143271,-0.092089 0.153321,-0.082031 0.02221,0.022227 -0.106694,0.238486 -0.561524,0.9404297 -0.190849,0.294539 -0.936,1.449612 -1.65625,2.566406 C 8.203577,7.2759735 7.309722,8.6614755 6.9375,9.238281 6.5652785,9.815087 5.7426455,11.090469 5.109375,12.072266 c -0.6332705,0.981797 -1.4595743,2.261533 -1.8359373,2.844726 -0.231131,0.35815 -0.4052521,0.640875 -0.5292969,0.850586 1.4361673,3.520157 4.7440562,5.921443 8.5359622,6.196289 0.285579,0.0033 -0.160324,-0.01925 0.285579,0.0033 C 12.815376,17.274369 13.857387,9.179057 16.607868,3.4290705 16.723707,3.186904 16.298409,3.1334612 16.353513,3.0117188 14.997258,2.3503426 13.508916,2.0044648 12,2 Z"/>
 <path style="opacity:0.2" d="M 2.01075,12.209 A 10,10 0 0 0 2,12.5 10,10 0 0 0 12,22.5 10,10 0 0 0 22,12.5 10,10 0 0 0 21.9895,12.291 10,10 0 0 1 12,22 10,10 0 0 1 2.011,12.209 Z"/>
 <path style="fill:#d8d342" d="m 11.38086,2.0361328 a 10,10 0 0 0 -0.641602,0.053711 10,10 0 0 1 0.641602,-0.053711 z"/>
 <path style="opacity:0.2" d="M 10.480469,2.6289063 A 10,10 0 0 0 9.8251955,2.7646485 C 8.0732415,4.4593368 3.1120654,9.3875285 2.2675781,10.28125 a 10,10 0 0 0 -0.1259766,0.62793 c 0.7137618,-0.774545 7.39293,-7.4055279 8.3388675,-8.2802737 z m 0.661133,0.5234375 c -0.01005,-0.010058 -0.07908,0.027093 -0.153321,0.082031 -0.22727,0.1681715 -2.273176,1.9825895 -2.9355465,2.6035155 -0.343415,0.3219275 -0.807486,0.743981 -1.03125,0.9375 C 6.7977205,6.96891 6.2989355,7.4083245 5.913086,7.751953 5.5272365,8.095582 5.1273305,8.4472955 5.024414,8.533203 4.8146293,8.7083155 4.0986526,9.342804 3.7958985,9.6220705 3.6868888,9.7226225 3.5257039,9.8619745 3.4384766,9.9316405 3.3512487,10.001307 3.1394809,10.185194 2.9677735,10.340821 2.6194697,10.656506 2.3146177,10.917488 2.1132813,11.082031 a 10,10 0 0 0 -0.1035157,1.098633 10,10 0 0 0 0.7363282,3.583008 c -5.4e-4,9e-4 -0.00142,0.003 -0.00196,0.0039 a 10,10 0 0 0 0.016602,0.03516 10,10 0 0 0 9.75e-4,10e-4 10,10 0 0 0 0.1162109,0.248047 C 2.9897194,15.867799 3.100886,15.68438 3.273434,15.417008 3.6497971,14.833814 4.4761011,13.554078 5.1093715,12.572281 5.742642,11.590485 6.565275,10.315103 6.9374965,9.738297 c 0.372222,-0.5768055 1.266077,-1.9623075 1.986328,-3.0791015 0.72025,-1.116794 1.4654015,-2.271867 1.6562505,-2.5664061 0.45483,-0.7019437 0.583738,-0.9182027 0.561523,-0.9404297 z"/>
 <path style="fill:#b8da6c" d="M 10.480469,2.1289063 A 10,10 0 0 0 2.1416015,10.40918 C 2.8553633,9.634635 9.5345325,3.0036521 10.480469,2.1289063 Z"/>
 <path style="fill:#d8d342" d="m 2.1416015,10.40918 c -4.122e-4,4.47e-4 -0.00252,0.0035 -0.00293,0.0039 a 10,10 0 0 0 -0.022461,0.146484 10,10 0 0 1 0.02539,-0.150391 z"/>
 <path style="fill:#d8d342" d="m 15.244141,2.5595703 0,0.00196 a 10,10 0 0 1 0.251953,0.083008 10,10 0 0 0 -0.251953,-0.084961 z"/>
 <path style="fill:#d8d342" d="M 15.496094,2.6445313 A 10,10 0 0 1 16.259765,2.9716797 10,10 0 0 0 15.496094,2.6445313 Z"/>
 <path style="fill:#d8d342" d="m 16.259765,2.9716797 a 10,10 0 0 1 0.09277,0.041015 c 0,0 0.001,-9.75e-4 0.001,-9.75e-4 a 10,10 0 0 0 -0.09375,-0.040039 z"/>
 <path style="fill:#b8da6c" d="m 11.141602,2.6523438 c -0.01005,-0.010058 -0.07908,0.027093 -0.153321,0.082031 -0.22727,0.1681715 -2.273176,1.9825896 -2.9355465,2.6035155 -0.343415,0.3219275 -0.807486,0.743981 -1.03125,0.9375 C 6.7977205,6.46891 6.2989355,6.9083245 5.913086,7.251953 5.5272365,7.595582 5.1273305,7.9472955 5.024414,8.033203 4.8146292,8.2083155 4.0986526,8.842804 3.7958985,9.1220705 3.6868888,9.2226225 3.5257039,9.3619745 3.4384766,9.4316405 3.3512487,9.5013065 3.1394809,9.6851935 2.9677735,9.8408205 2.6194697,10.156506 2.3146177,10.417487 2.1132813,10.582031 A 10,10 0 0 0 2,12 10,10 0 0 0 3.2832031,16.889648 l 0,-0.02344 A 10,10 0 0 1 3.1933594,16.714844 10,10 0 0 1 3.0029297,16.319336 10,10 0 0 1 2.7441406,15.767578 C 2.8681855,15.557867 3.0423065,15.275142 3.2734375,14.916992 3.6498006,14.333799 4.4761046,13.054063 5.109375,12.072266 5.7426455,11.090469 6.5652785,9.8150875 6.9375,9.238281 7.309722,8.6614755 8.203577,7.2759735 8.923828,6.1591795 c 0.72025,-1.116794 1.465401,-2.271867 1.65625,-2.566406 0.45483,-0.7019437 0.583739,-0.9182027 0.561524,-0.9404297 z"/>
 <path style="fill:#778b3c" d="m 21.93457,13.040039 -8.905273,8.905273 a 10,10 0 0 0 8.905273,-8.905273 z"/>
 <path style="opacity:0.2" d="m 21.93457,13.040039 -8.905273,8.905273 a 10,10 0 0 0 0.591797,-0.0918 l 8.234375,-8.234374 a 10,10 0 0 0 0.0791,-0.579102 z"/>
 <path style="fill:#eddf36" d="m 16.352539,3.0126953 c -0.05488,0.1212713 -0.09442,0.212561 -0.209961,0.4541016 -2.750481,5.7499866 -4.484333,11.9443001 -4.770507,17.0390621 -0.02619,0.466354 -0.06144,1.039284 -0.07813,1.272461 l -0.01367,0.181641 C 11.519623,21.981952 11.759688,21.995307 12,22 c 0.343811,-5e-4 0.687366,-0.01878 1.029297,-0.05469 L 21.93457,13.040039 C 21.974441,12.694732 21.996281,12.347581 22,12 21.993956,8.169918 19.800798,4.6797506 16.352539,3.0126953 Z M 13.029297,21.945312 c 4.692241,-0.491338 8.402763,-4.195347 8.902343,-8.886718 -0.49958,4.691371 -4.210102,8.39538 -8.902343,8.886718 z m -1.749023,0.01465 c 0,0 0,-0.0037 0,0.0039 z"/>
 <path style="opacity:0.2;fill:#ffffff" d="m 12,2 a 10,10 0 0 0 -10,10 10,10 0 0 0 0.01075,0.209 10,10 0 0 1 9.989,-9.709 10,10 0 0 1 9.9895,9.791 10,10 0 0 0 0.0105,-0.291 10,10 0 0 0 -10,-10 z"/>
</svg>
